style-guide/assets/wds-icons-poll-small.svg

<svg xmlns="http://www.w3.org/2000/svg" xmlns:xlink="http://www.w3.org/1999/xlink" width="18" height="18" viewBox="0 0 18 18">
  <defs>
    <path id="poll-a" d="M12.2941176,15 L15.1176471,15 L15.1176471,8 L12.2941176,8 L12.2941176,15 Z M7.58823529,15 L10.4117647,15 L10.4117647,3 L7.58823529,3 L7.58823529,15 Z M2.88235294,15 L5.70588235,15 L5.70588235,12 L2.88235294,12 L2.88235294,15 Z M16.0588235,6 L12.2941176,6 L12.2941176,2 C12.2941176,1.447 11.8724706,1 11.3529412,1 L6.64705882,1 C6.12752941,1 5.70588235,1.447 5.70588235,2 L5.70588235,10 L1.94117647,10 C1.42164706,10 1,10.447 1,11 L1,16 C1,16.553 1.42164706,17 1.94117647,17 L16.0588235,17 C16.5783529,17 17,16.553 17,16 L17,7 C17,6.447 16.5783529,6 16.0588235,6 Z"/>
  </defs>
  <use fill-rule="evenodd" xlink:href="#poll-a"/>
</svg>

<svg viewBox="0 0 18 18" xmlns="http://www.w3.org/2000/svg">
  <path d="M12.294 15h2.824V8h-2.824v7zm-4.706 0h2.824V3H7.588v12zm-4.706 0h2.824v-3H2.882v3zM16.06 6h-3.765V2c0-.553-.422-1-.941-1H6.647c-.52 0-.941.447-.941 1v8H1.94c-.52 0-.941.447-.941 1v5c0 .553.422 1 .941 1h14.12c.52 0 .941-.447.941-1V7c0-.553-.422-1-.941-1z" fill-rule="evenodd"/>
</svg>
